!! 00000] TT[WS
!!!OTL: Ma meren
!!!ARE: Asia, China,ÿShanxi Wutai
!! Ethnic Group: Han
!! WI, 88
!!!SCT: J0104
!!!YEM: Copyright 1995, estate of Helmut Schaffrath.
**kern
*ICvox
*Ivox
*M2/4
*k[]
*C:
{8ee
4ee
8ee
=1
2dd
=2
8ee
4ee
8ee
=3
2dd}
=4
{8ee
8dd
4ee
=5
8dd
8ee
8dd
8ee
=6
4.dd
8a
=7
4g
4r}
=8
{4.g
8e
=9
4.d
8d
=10
4.dd
8cc
=11
4dd
4r}
=12
{8dd
8cc
4dd
=13
8a
8cc
8a
8g
=14
4.g
8a
=15
4cc
4dd
=16
8a
16cc
16dd
8g
8e
=17
2d}
==
!!!AGN: Xiaodiao. Qingge, Aisu
!!!ONB: ESAC (Essen Associative Code) Database: CHINA
!!!AMT: simple duple
!!!AIN: vox
!!!EED: Helmut Schaffrath
!!!EEV: 1.0
*-
